X:259
T:O Lord We Praise Thee
%%stretchlast false
M:4/4
L:1/4
K:Bb clef=C1
"^V"[F,A,CF]2 "^I"[B,,B,DF] "^iii"[D,F,A,F] | "^V/V"[C,=E,CG]2 "^V¹"[A,,F,CF]2 | "^vi"[G,,D,DB]3/2 "^V¹"[A,,F,Cc]/ "^I"[B,,F,DB] "^V"[F,CA] | "^V/V"[C,=E,CG]2 "^V"[F,,F,A,F]2 | "^ii"[C,E,CG]2 "^vi"[G,,D,B,B]2 | "^V¹"[A,,F,CF]2 "^vi"[C,G,B,D]2 | "^ii7"[C,,E,B,E]2 "^vi"[G,,D,B,D]2 | "^iii7²"[A,,D,A,C]2 "^vii°"[A,,E,CE]2 | "^iii7"[D,,F,CF]4 | "^V"[F,A,CF]2 "^I"[B,,B,DF] "^iii"[D,F,A,F] | "^V/V"[C,=E,CG]2 "^V¹"[A,,F,CF]2 | "^vi"[G,,D,DB]3/2 "^V¹"[A,,F,Cc]/ "^I"[B,,F,DB] "^V"[F,CA] | "^V/V"[C,=E,CG]2 "^V"[F,,F,A,F]2 | "^ii"[C,E,CG]2 "^vi"[G,,D,B,B]2 | "^V¹"[A,,F,CF]2 "^vi"[C,G,B,D]2 | "^ii7"[C,,E,B,E]2 "^vi"[G,,D,B,D]2 | "^iii7²"[A,,D,A,C]2 "^vii°"[A,,E,CE]2 | "^iii7"[D,,F,CF]4 | "^I"[B,,B,DF]2 [B,,B,DF] "^V¹"[A,,CF] | "^vi"[G,,B,DG]3/2 "^iii"[G,,A,DF]/ "^V/V"[C,G,C=E]2 | "^V"[F,,A,CF]4 | [F,A,CF]2 "^iii"[D,A,DF]2 | "^V/V"[C,C=EG]2 "^V"[F,CFA]2 | "^I"[B,,DFB]2 [B,,B,DF] "^V"[F,A,CF] | "^ii"[C,CEG]2 "^V"[F,,A,F]2 | [F,CFA]2 "^I¹"[D,DFB]2 | "^V/V"[C,G,=Ec]2 "^V¹"[A,,A,Fc]2 | "^I"[B,,F,DB] "^I¹"[D,F,DB]/ "^iii"[D,F,DA]/ "^vi"[G,,G,B,G] "^V/V"[C,=E,CG] | "^V"[F,,A,CF]2 [F,,A,CF]3/2 "^ii"[C,G,CE]/ | "^V"[F,A,C]4 | "^I"[B,,F,B,D]2 "^♭v°¹"[G,,G,B,=E]2 | "^V"[F,,A,CF]4 | "^vi¹"[B,,G,D]2 "^V/V"[C,G,C=E]2 | "^V"[F,,A,CF]4 | [F,,F,A,C]2 "^IV"[E,,G,B,E]2 | "^I"[B,,F,B,D]2 "^V¹"[A,,F,C]2 | "^I"[B,,F,B,D]2 "^V"[F,,F,A,C]2 | "^I"[B,,D,B,]4 | [B,,B,DF]2 [B,,B,DF] "^V¹"[A,,CF] | "^vi"[G,,B,DG]3/2 "^iii"[G,,A,DF]/ "^V/V"[C,G,C=E]2 | "^V"[F,,A,CF]4 |]
